X:31
T:Runaway
S:Ciorras, Silver Lining
R:slip jig
M:9/8
L:1/8
K:C
|: EcG FcG c2c | fcg cec dcA | ecG GAG fcG | gcG GAG fcG |
EcG FcG c2c | fcg cac bcc'- | c'3- c'cf edc | Ecc Fce edc :|
|: cGG cGc FcE | cAc GcF cEc | AcB c2f edc | agf edc c2f |
edc agf bgc'- | c'2a gfe fed | agf gfe edc | Ecc Fce edc :|
